X:1
T:Partita VI Corrente
T:BWV 830
T:J. S. Bach
%%score { 1 | 2 }
L:1/8
Q:1/4=72
M:3/8
K:G
V:1 treble nm="Harp"
V:2 bass 
V:1
"^Adagio" z/ B/ | B/E^DE/ | F/cBA/- | A/GF/4E/4F/A/- | A/^D/ z/ B/4^c/4^d/4e/4f/- | f/egB/- | %6
 B/c/ z/ A/4B/4c/4d/4e/- | e/dac/- | c/B/ z/ e/4f/4g/B/- | B/A/ z/ ^d/4e/4f/A/- | %10
 A/G/ z/ =f/4e/4d/4c/4B/- | B/c/ z/ g/4f/4e/4^d/4^c/- | c/^d/ z/ c'/4b/4a/4g/4f/- | f/g^de/- | %14
 e/Bc^G/- | G/AE=F/ | c/4B/<A/G/<F/e/4^d/- | d/4e/4f/4g/4a/4b/4c'^d/- | d/e/ z/ EF/ | G/4B/4eGF/- | %20
 F/4E/<F/G/<A/B/4c/- | c/4e/4acB/- | B/4A/<B/c/<d/e/4=f/- | f/4e/4=fAG/ | e/4d/4eGF/ | d/4c/4dFE/ | %26
 c/4B/4cED/ | B/4A/4BeG/ | G/4F/4DD/4E/4F/4G/4A/4B/4 | c/4a/4f/4d/4 c/4a/4f/4d/4 c/4a/4f/4d/4 | %30
 B/4g/4d/4B/4 G/4d/4B/4G/4 F/4G/4A/4B/4 | c/4a/4f/4d/4 c/4a/4f/4d/4 c/4a/4f/4d/4 | %32
 B/4g/4d/4B/4 G/4d/4B/4G/4 F/4G/4A/4B/4 | ^c/4_B/4A/4G/4 E/4G/4A/4B/4 c/4B/4A/4G/4 | %34
 c/4A/4G/4F/4 _E/4F/4G/4A/4 c/4A/4G/4F/4 | _B/4G/4F/4E/4 ^C/4E/4F/4G/4 B/4G/4F/4E/4 | %36
 ^c/4_B/4A/4G/4 _e/4=c/4B/4A/4 f/4e/4d/4c/4 | g/4f/4gb/d/f/ | g z/ b/4a/4g/4f/4e/- | %39
 e/4f/<d/e/<c/d/4B/- | B/4c/4A/ z/ A/4B/4c/4B/4A/ | f/4A/<c/B/<A/G/4F/ | %42
 G/4F/4E/ z/ ^A/4B/4^c/4d/4e/- | e/4f/<g/f/<e/d/4^c/ | d/4e/<f/e/<d/^c/4B/ | ^c/4d/<e/d/<c/B/4^A/ | %46
 B/4^c/4de/4f/4g/4f/4g/ | ^A/4g/4f/4e/4 B/4f/4e/4d/4 ^c/4e/4d/4c/4 | %48
 d/4B/4^A/4^G/4 F/4B/4^c/4d/4 E/4A/4B/4c/4 | D/4F/4B/- B/4^c/4B/4A/4- A/4B/4A/4G/4- | %50
 G/4A/4G/4F/4- F/4G/4F/4E/4- E/4F/4E/4D/4- | D/4G/<C/G/<B,/G/4^A,/- | A, z z/4 F/4^A/4^c/4 | %53
 d/4^e/4^g/4b/4 z [^C=EF^A] | [^DFB]2 z/ B/ | B/E^DE/ | F/cBA/- | A/GF/4E/4F/A/- | %58
 A/^D/ z/ B/4^c/4^d/4e/4f/- | f/egB/- | B/c/ z/ A/4B/4c/4d/4e/- | e/dac/- | c/B/ z/ e/4f/4g/B/- | %63
 B/A/ z/ ^d/4e/4f/A/- | A/G/ z/ =f/4e/4d/4c/4B/- | B/c/ z/ g/4f/4e/4^d/4^c/- | %66
 c/^d/ z/ c'/4b/4a/4g/4f/- | f/g^de/- | e/Bc^G/- | G/AE=F/ | c/4B/<A/G/<F/e/4^d/- | %71
 d/4e/4f/4g/4a/4b/4c'^d/- | d/e/ z/ EF/ | G/4B/4eGF/- | F/4E/<F/G/<A/B/4c/- | c/4e/4acB/- | %76
 B/4A/<B/c/<d/e/4=f/- | f/4e/4=fAG/ | e/4d/4eGF/ | d/4c/4dFE/ | c/4B/4cED/ | B/4A/4BeG/ | %82
 G/4F/4DD/4E/4F/4G/4A/4B/4 | c/4a/4f/4d/4 c/4a/4f/4d/4 c/4a/4f/4d/4 | %84
 B/4g/4d/4B/4 G/4d/4B/4G/4 F/4G/4A/4B/4 | c/4a/4f/4d/4 c/4a/4f/4d/4 c/4a/4f/4d/4 | %86
 B/4g/4d/4B/4 G/4d/4B/4G/4 F/4G/4A/4B/4 | ^c/4_B/4A/4G/4 E/4G/4A/4B/4 c/4B/4A/4G/4 | %88
 c/4A/4G/4F/4 _E/4F/4G/4A/4 c/4A/4G/4F/4 | _B/4G/4F/4E/4 ^C/4E/4F/4G/4 B/4G/4F/4E/4 | %90
 ^c/4_B/4A/4G/4 _e/4=c/4B/4A/4 f/4e/4d/4c/4 | g/4f/4gb/d/f/ | g z/ b/4a/4g/4f/4e/- | %93
 e/4f/<d/e/<c/d/4B/- | B/4c/4A/ z/ A/4B/4c/4B/4A/ | f/4A/<c/B/<A/G/4F/ | %96
 G/4F/4E/ z/ ^A/4B/4^c/4d/4e/- | e/4f/<g/f/<e/d/4^c/ | d/4e/<f/e/<d/^c/4B/ | ^c/4d/<e/d/<c/B/4^A/ | %100
 B/4^c/4de/4f/4g/4f/4g/ | ^A/4g/4f/4e/4 B/4f/4e/4d/4 ^c/4e/4d/4c/4 | %102
 d/4B/4^A/4^G/4 F/4B/4^c/4d/4 E/4A/4B/4c/4 | D/4F/4B/- B/4^c/4B/4A/4- A/4B/4A/4G/4- | %104
 G/4A/4G/4F/4- F/4G/4F/4E/4- E/4F/4E/4D/4- | D/4G/<C/G/<B,/G/4^A,/- | A, z z/4 F/4^A/4^c/4 | %107
 d/4^e/4^g/4b/4 z [^C=EF^A] | [^DFB]2 z/ f/ | f/bac'/- | c'/^dfA/- | A/cBA/- | %112
 A/4F/4G/ z/ B/4A/4G/4F/4E/- | E/4^G/<A/B/<c/d/4e/- | e/4^c/4d/ z/ A/4G/4=F/4E/4D/- | %115
 D/4F/<G/A/<B/c/4d/- | d/4B/4c/ z/ c/4d/4e/4=f/4g/- | g/4a/4g/4^c/4 g/4a/4g/4c/4 g/4a/4g/4c/4 | %118
 =f/4g/4f/4d/4 f/4g/4f/4d/4 f/4g/4f/4d/4 | e/4=f/4e/4d/4 ^g/4a/4g/4d/4 b/4c'/4b/4d/4 | %120
 e/4^B/4a/ z/ _B/4A/4G/4=F/4E/- | E/4=F/4D/ z/ c/4B/4A/4G/4^F/- | F/4^G/4E/ z/ =f/4e/4d/4c/4B/- | %123
 B/c^GA/- | A/E=F^C/- | C/DA,^A,/ | =F/4E/<D/C/<B,/A/4^G/- | G/4A/4B/4c/4d/4e/4=f^G/- | %128
 G/A/ z/ c'/4b/4a/4g/4f/4e/4 | f/4a/4f/4e/4 ^d/4f/4c/4B/4 A/4f/4B/4A/4 | %130
 G/4e/4B/4A/4 G/4B/4G/4F/4 E/4G/4B/4d/4 | ^c/4e/4c/4B/4 ^A/4c/4G/4F/4 E/4c/4F/4E/4 | %132
 ^D/4B/4F/4E/4 D/4F/4D/4^C/4B,- | B,/BEF/- | F/cBA/- | A/GF/4E/4F/A/- | A/^D/ z/ ^d/4e/4f/A/- | %137
 A/G/ z/ ^g/4a/4b/d/- | d/^B/ z/ ^c/4d/4e/G/- | G/=F/ z/ f/4g/4a/c/- | c/B/ z/ B/4c/4d/=F/ | %141
 E/4=F/<G/F/<E/D/4C/ | D/4E/<=F/E/<D/C/4B,/ | C/4D/4E=F/4G/4A/4B/4c/4A/4 | %144
 =F/4d/4B/4G/4 F/4d/4B/4G/4 F/4d/4B/4G/4 | E/4c/4G/4E/4 C/4G/4E/4C/4 B,/4C/4D/4E/4 | %146
 F/4_E/4D/4C/4 A,/4C/4D/4=E/4 F/4E/4D/4C/4 | =F/4D/4C/4B,/4 _A,/4B,/4C/4D/4 F/4D/4C/4B,/4 | %148
 _E/4C/4B,/4A,/4 ^F,/4A,/4B,/4C/4 E/4C/4B,/4A,/4 | =F/4D/4C/4B,/4 _A,/4B,/4C/4D/4 F/4D/4C/4B,/4 | %150
 _E/4C/4B,/4A,/4 F,/4A,/4B,/4C/4 E/4C/4B,/4A,/4 | F/4_E/4D/4C/4 _A/4=F/4E/4D/4 B/4A/4G/4F/4 | %152
 c/4B/4ce/G/B/ | c z/ e/4d/4c/4B/4A/- | A/4_B/<G/A/<=F/G/4E/- | E/4=F/4D/ z/ d/4e/4=f/4e/4d/ | %156
 b/4e/<=f/e/<d/c/4B/ | c/4B/4A/ z/ ^d/4e/4f/4g/4a/- | a/4b/<c'/b/<a/g/4f/ | g/4f/4gBA/ | %160
 f/4e/4fAG/ | e/4^d/4eGF/ | ^d/4B/4c/4B/4 e/4B/4c/4B/4 f/4B/4c/4B/4 | %163
 g/4e/4^d/4^c/4 B/4e/4f/4g/4 d/4f/4g/4e/4 | g/4b/4e/- e/4f/4e/4d/4- d/4e/4d/4c/4- | %165
 c/4d/4c/4B/4- B/4c/4B/4A/4- A/4B/4A/4G/4- | G/4c/<=F/c/<E/c/4^D/- | D z B,/4^C/4^D/4E/4 | %168
 F/4G/4A/4B/4c/4B/4^c/4^d/4e/4f/4g/4a/4 | b z [FAB^d] | [EGBe]2 z/ f/ | f/bac'/- | c'/^dfA/- | %173
 A/cBA/- | A/4F/4G/ z/ B/4A/4G/4F/4E/- | E/4^G/<A/B/<c/d/4e/- | e/4^c/4d/ z/ A/4G/4=F/4E/4D/- | %177
 D/4F/<G/A/<B/c/4d/- | d/4B/4c/ z/ c/4d/4e/4=f/4g/- | g/4a/4g/4^c/4 g/4a/4g/4c/4 g/4a/4g/4c/4 | %180
 =f/4g/4f/4d/4 f/4g/4f/4d/4 f/4g/4f/4d/4 | e/4=f/4e/4d/4 ^g/4a/4g/4d/4 b/4c'/4b/4d/4 | %182
 e/4^B/4a/ z/ _B/4A/4G/4=F/4E/- | E/4=F/4D/ z/ c/4B/4A/4G/4^F/- | F/4^G/4E/ z/ =f/4e/4d/4c/4B/- | %185
 B/c^GA/- | A/E=F^C/- | C/DA,^A,/ | =F/4E/<D/C/<B,/A/4^G/- | G/4A/4B/4c/4d/4e/4=f^G/- | %190
 G/A/ z/ c'/4b/4a/4g/4f/4e/4 | f/4a/4f/4e/4 ^d/4f/4c/4B/4 A/4f/4B/4A/4 | %192
 G/4e/4B/4A/4 G/4B/4G/4F/4 E/4G/4B/4d/4 | ^c/4e/4c/4B/4 ^A/4c/4G/4F/4 E/4c/4F/4E/4 | %194
 ^D/4B/4F/4E/4 D/4F/4D/4^C/4B,- | B,/BEF/- | F/cBA/- | A/GF/4E/4F/A/- | A/^D/ z/ ^d/4e/4f/A/- | %199
 A/G/ z/ ^g/4a/4b/d/- | d/^B/ z/ ^c/4d/4e/G/- | G/=F/ z/ f/4g/4a/c/- | c/B/ z/ B/4c/4d/=F/ | %203
 E/4=F/<G/F/<E/D/4C/ | D/4E/<=F/E/<D/C/4B,/ | C/4D/4E=F/4G/4A/4B/4c/4A/4 | %206
 =F/4d/4B/4G/4 F/4d/4B/4G/4 F/4d/4B/4G/4 | E/4c/4G/4E/4 C/4G/4E/4C/4 B,/4C/4D/4E/4 | %208
 F/4_E/4D/4C/4 A,/4C/4D/4=E/4 F/4E/4D/4C/4 | =F/4D/4C/4B,/4 _A,/4B,/4C/4D/4 F/4D/4C/4B,/4 | %210
 _E/4C/4B,/4A,/4 ^F,/4A,/4B,/4C/4 E/4C/4B,/4A,/4 | =F/4D/4C/4B,/4 _A,/4B,/4C/4D/4 F/4D/4C/4B,/4 | %212
 _E/4C/4B,/4A,/4 F,/4A,/4B,/4C/4 E/4C/4B,/4A,/4 | F/4_E/4D/4C/4 _A/4=F/4E/4D/4 B/4A/4G/4F/4 | %214
 c/4B/4ce/G/B/ | c z/ e/4d/4c/4B/4A/- | A/4_B/<G/A/<=F/G/4E/- | E/4=F/4D/ z/ d/4e/4=f/4e/4d/ | %218
 b/4e/<=f/e/<d/c/4B/ | c/4B/4A/ z/ ^d/4e/4f/4g/4a/- | a/4b/<c'/b/<a/g/4f/ | g/4f/4gBA/ | %222
 f/4e/4fAG/ | e/4^d/4eGF/ | ^d/4B/4c/4B/4 e/4B/4c/4B/4 f/4B/4c/4B/4 | %225
 g/4e/4^d/4^c/4 B/4e/4f/4g/4 d/4f/4g/4e/4 | g/4b/4e/- e/4f/4e/4d/4- d/4e/4d/4c/4- | %227
 c/4d/4c/4B/4- B/4c/4B/4A/4- A/4B/4A/4G/4- | G/4c/<=F/c/<E/c/4^D/- | D z B,/4^C/4^D/4E/4 | %230
 F/4G/4A/4B/4c/4B/4^c/4^d/4e/4f/4g/4a/4 | b z [FAB^d] | !fermata![EGBe]2 z |] %233
V:2
 z | E,G,C | ^D,F,B, | E,A,C, | B,,B,A, | G,B,E | A,CE | F,A,D | G,B,E | F,A,^D | E,G,^G, | %11
 A,_B,F, | B,B,,^D, | E,F,G, | C,D,E, | =F,G,A, | ^D,B,A, | G,E,B,, | E,G,B, | ED^C | DD,F, | %21
 A,G,F, | G,G,,B,, | D,C,B,, | C,B,,A,, | B,,A,,G,, | A,,G,,F,, | G,,C,C, | D,F,A, | DD,D- | %30
 DD,D- | DD,D- | DD,D- | DD,D- | DD,D- | DD,D- | DF,D, | B,,G,,D, | G,,G,B, | ^G,EE, | A,F,E, | %41
 ^D,B,,B, | E,^C,B,, | ^A,,G,,F, | B,,A,G, | A,,G,F, | G,,F,E, | F,,^G,^A, | F,,B,^C | F,,^CB, | %50
 A,G,F, | E,D,^C, | F,/4F,,/4^A,,/4^C,/4E,/4G,/4^A,/4^C/4E/4 z/4 z/ | %53
 z[I:staff -1] F[I:staff +1]F, | [B,,B,]2 z | E,G,C | ^D,F,B, | E,A,C, | B,,B,A, | G,B,E | A,CE | %61
 F,A,D | G,B,E | F,A,^D | E,G,^G, | A,_B,F, | B,B,,^D, | E,F,G, | C,D,E, | =F,G,A, | ^D,B,A, | %71
 G,E,B,, | E,G,B, | ED^C | DD,F, | A,G,F, | G,G,,B,, | D,C,B,, | C,B,,A,, | B,,A,,G,, | A,,G,,F,, | %81
 G,,C,C, | D,F,A, | DD,D- | DD,D- | DD,D- | DD,D- | DD,D- | DD,D- | DD,D- | DF,D, | B,,G,,D, | %92
 G,,G,B, | ^G,EE, | A,F,E, | ^D,B,,B, | E,^C,B,, | ^A,,G,,F, | B,,A,G, | A,,G,F, | G,,F,E, | %101
 F,,^G,^A, | F,,B,^C | F,,^CB, | A,G,F, | E,D,^C, | %106
 F,/4F,,/4^A,,/4^C,/4E,/4G,/4^A,/4^C/4E/4 z/4 z/ | z[I:staff -1] F[I:staff +1]F, | [B,,B,]2 z | %109
 B,,^D,F, | A,C^D | F^DB, | E,ED | CA,G, | =F,DC | B,G,=F, | E,C_B, | A,=F,E, | D,_B,A, | ^G,E,D, | %120
 C,^C,A,, | D,^D,B,, | E,E,,^G,, | A,,B,,C, | =F,,G,,A,, | _B,,C,D, | ^G,,E,D, | C,A,,E,, | %128
 A,,A,C | ^DFB, | EE,G, | ^A,^CF, | B,B,,^D, | E,G,C | ^D,F,B, | E,A,C, | B,,B,^D, | E,E,,^G,, | %138
 A,,A,^C, | D,D,,F,, | G,,G,B,, | C,B,A, | B,,A,G, | A,,G,=F, | G,,G,G,,- | G,,G,G,,- | G,,G,G,,- | %147
 G,,G,G,,- | G,,G,G,,- | G,,G,G,,- | G,,G,G,,- | G,,D,=F,, | E,,=F,,G,, | C,,C,E, | ^C,A,,A, | %155
 D,B,A, | ^G,E,E | A,F,E, | ^D,F,B,, | E,DC | D,CB, | C,B,A, | B,,^C^D | B,,EF | B,,FE | DCB, | %166
 A,G,F, | B,/4B,,/4^C,/4^D,/4E,/4F,/4G,/4A,/4 z | z3 | z G,,B,, | E,,2 z | B,,^D,F, | A,C^D | %173
 F^DB, | E,ED | CA,G, | =F,DC | B,G,=F, | E,C_B, | A,=F,E, | D,_B,A, | ^G,E,D, | C,^C,A,, | %183
 D,^D,B,, | E,E,,^G,, | A,,B,,C, | =F,,G,,A,, | _B,,C,D, | ^G,,E,D, | C,A,,E,, | A,,A,C | ^DFB, | %192
 EE,G, | ^A,^CF, | B,B,,^D, | E,G,C | ^D,F,B, | E,A,C, | B,,B,^D, | E,E,,^G,, | A,,A,^C, | %201
 D,D,,F,, | G,,G,B,, | C,B,A, | B,,A,G, | A,,G,=F, | G,,G,G,,- | G,,G,G,,- | G,,G,G,,- | %209
 G,,G,G,,- | G,,G,G,,- | G,,G,G,,- | G,,G,G,,- | G,,D,=F,, | E,,=F,,G,, | C,,C,E, | ^C,A,,A, | %217
 D,B,A, | ^G,E,E | A,F,E, | ^D,F,B,, | E,DC | D,CB, | C,B,A, | B,,^C^D | B,,EF | B,,FE | DCB, | %228
 A,G,F, | B,/4B,,/4^C,/4^D,/4E,/4F,/4G,/4A,/4 z | z3 | z G,,B,, | !fermata!E,,2 z |] %233

